src/assets/square-text-icon.svg

<svg fill="none" height="22" viewBox="0 0 22 22" width="22" xmlns="http://www.w3.org/2000/svg"><path d="m11 22c-.2652 0-.5196-.1054-.7071-.2929s-.2929-.4419-.2929-.7071v-3h-4c-.53043 0-1.03914-.2107-1.41421-.5858-.37508-.3751-.58579-.8838-.58579-1.4142v-10c0-.53043.21071-1.03914.58579-1.41421.37507-.37508.88378-.58579 1.41421-.58579h14c.5304 0 1.0391.21071 1.4142.58579.3751.37507.5858.88378.5858 1.41421v10c0 .5304-.2107 1.0391-.5858 1.4142s-.8838.5858-1.4142.5858h-4.1l-3.7 3.71c-.2.18-.44.29-.7.29zm1-6v3.08l3.08-3.08h4.92v-10h-14v10zm-10-2h-2v-12c0-.53043.210714-1.039141.585786-1.414214.375073-.375072.883784-.585786 1.414214-.585786h16v2h-16zm6-6h10v2h-10zm0 4h8v2h-8z" fill="#000"/></svg>

<svg width="22" height="22" viewBox="0 0 22 22" fill="none" xmlns="http://www.w3.org/2000/svg">
  <path d="M11 22C10.7348 22 10.4804 21.8946 10.2929 21.7071C10.1054 21.5196 10 21.2652 10 21V18H6C5.46957 18 4.96086 17.7893 4.58579 17.4142C4.21071 17.0391 4 16.5304 4 16V6C4 5.46957 4.21071 4.96086 4.58579 4.58579C4.96086 4.21071 5.46957 4 6 4H20C20.5304 4 21.0391 4.21071 21.4142 4.58579C21.7893 4.96086 22 5.46957 22 6V16C22 16.5304 21.7893 17.0391 21.4142 17.4142C21.0391 17.7893 20.5304 18 20 18H15.9L12.2 21.71C12 21.89 11.76 22 11.5 22H11ZM12 16V19.08L15.08 16H20V6H6V16H12ZM2 14H0V2C0 1.46957 0.210714 0.960859 0.585786 0.585786C0.960859 0.210714 1.46957 0 2 0H18V2H2V14ZM8 8H18V10H8V8ZM8 12H16V14H8V12Z" fill="black"/>
</svg>
